public/assets/routes_avatar/userManage.svg

<?xml version="1.0" encoding="UTF-8"?>
<svg width="60px" height="60px" viewBox="0 0 60 60" version="1.1" xmlns="http://www.w3.org/2000/svg" xmlns:xlink="http://www.w3.org/1999/xlink">
    <!-- Generator: Sketch 49.3 (51167) - http://www.bohemiancoding.com/sketch -->
    <title>用户权限-用户管理 </title>
    <desc>Created with Sketch.</desc>
    <defs>
        <path d="M29.2831258,22.7261466 L29.2427348,22.4707415 L28.4636124,22.2100154 C28.3955854,21.9993062 28.3105516,21.7928537 28.2095739,21.5959789 L28.5773452,20.860625 L28.4264102,20.6499158 C28.1202884,20.2316899 27.754643,19.8656092 27.3390403,19.5633798 L27.1296445,19.4122651 L26.395165,19.7804742 C26.1974613,19.6793763 25.9923173,19.5942412 25.7818586,19.5261332 L25.5225055,18.7482118 L25.2695299,18.7088368 C24.9878554,18.6641409 24.7444461,18.6428571 24.5020997,18.6428571 C24.2661309,18.6428571 24.0216587,18.6641409 23.7336066,18.709901 L23.4785052,18.7503401 L23.2191521,19.5314542 C23.0044417,19.6016906 22.7982347,19.6868256 22.6058457,19.7847309 L21.8724291,19.4154577 L21.6630333,19.5665724 C21.2463676,19.8688018 20.8807222,20.2338183 20.5767264,20.6531083 L20.4257913,20.8638176 L20.7935626,21.5991715 C20.6936478,21.7960463 20.608614,22.0014346 20.540587,22.2121438 L19.7614647,22.4707415 L19.7210736,22.7261466 C19.6764309,23.0081565 19.6551724,23.2593049 19.6551724,23.4966188 C19.6551724,23.7349969 19.6764309,23.9861453 19.7210736,24.2660267 L19.7614647,24.5214319 L20.540587,24.7821579 C20.608614,24.9928672 20.6936478,25.1993196 20.7946255,25.3961944 L20.4289801,26.12942 L20.5799151,26.3380008 C20.7372277,26.5572236 20.8998548,26.7498416 21.0763,26.927561 C21.241053,27.0935744 21.433442,27.2563951 21.6640962,27.425601 L21.873492,27.5767157 L22.6069086,27.2085067 C22.8046122,27.3096045 23.0097563,27.3958038 23.220215,27.4628476 L23.4795681,28.2439616 L23.7346696,28.2844008 C24.0142182,28.3290967 24.265068,28.3503804 24.5020997,28.3503804 C24.7391315,28.3503804 24.9899812,28.3290967 25.2705928,28.2844008 L25.5256942,28.2439616 L25.7850474,27.4628476 C25.9933802,27.3947396 26.1985243,27.3096045 26.3972908,27.2095708 L27.1317704,27.5777799 L27.3411661,27.4266652 C27.5696945,27.2617161 27.7620835,27.0988953 27.9289624,26.9286252 C28.1022187,26.7551626 28.263783,26.5614803 28.4253472,26.339065 L28.5762822,26.1283558 L28.208511,25.3930019 C28.3094887,25.1961271 28.3945225,24.9907388 28.4625495,24.7789654 L29.2416718,24.5182393 L29.2820629,24.2628342 C29.3267056,23.9829527 29.3479641,23.7318043 29.3479641,23.4944904 C29.3511529,23.2593049 29.3298944,23.0070923 29.2831258,22.7261466 Z M28.5869115,23.4881053 L28.5869115,23.4934262 C28.5869115,23.6370916 28.5773452,23.7828854 28.5592755,23.939321 L28.1830009,24.0648952 L27.8503061,24.1776991 L27.7472026,24.5129184 C27.6887418,24.7066006 27.6111485,24.8949619 27.5165484,25.0737455 L27.3528583,25.3834242 L27.686616,26.0506701 C27.5888271,26.1741159 27.4921011,26.2837273 27.3911235,26.3848251 L27.3889976,26.3869535 C27.2901458,26.4869872 27.1806648,26.5838283 27.0573658,26.6806694 L26.3930391,26.3475785 L26.0847915,26.5082709 C25.9030318,26.6029837 25.7117057,26.6817336 25.5171908,26.7434565 L25.1844961,26.8477469 L25.0760779,27.1776452 L24.9506531,27.5543678 C24.7954664,27.5735232 24.648783,27.5820367 24.5052885,27.5820367 C24.3628568,27.5820367 24.2161735,27.572459 24.0599239,27.5543678 L23.934499,27.1776452 L23.825018,26.8445544 L23.4901973,26.7413281 C23.2924937,26.6806694 23.1043564,26.6029837 22.9300371,26.5103993 L22.6196637,26.3486427 L22.3061015,26.5050784 L21.9521483,26.6817336 C21.8288492,26.5838283 21.7193682,26.4869872 21.6183906,26.3858893 C21.5152871,26.2826631 21.4185611,26.1730517 21.3228981,26.0517343 L21.6545299,25.3866167 L21.4929657,25.0780022 C21.3962397,24.8928335 21.3175834,24.703408 21.2601856,24.5139825 L21.1570821,24.1787633 L20.4491756,23.9435778 C20.430043,23.7882063 20.4215396,23.6413484 20.4215396,23.497683 C20.4215396,23.3540176 20.431106,23.2082238 20.4491756,23.0517882 L21.1549563,22.8166026 L21.2580598,22.4824476 C21.3175834,22.2898295 21.3962397,22.0993399 21.4908398,21.9162995 L21.6524041,21.607685 L21.4972174,21.2958779 L21.3207722,20.9415033 C21.5067837,20.7095103 21.7183053,20.4977369 21.9500224,20.311504 L22.615412,20.6445948 L22.9247225,20.4817741 C23.1032935,20.3881255 23.2935567,20.3093756 23.4901973,20.2476527 L23.8228921,20.1433623 L23.9334361,19.8123998 L24.058861,19.4356772 C24.2193623,19.417586 24.3649827,19.4080083 24.5031626,19.4080083 C24.6455943,19.4080083 24.7922776,19.417586 24.9474643,19.4356772 L25.1834331,20.1412339 L25.5161279,20.2444601 C25.7095798,20.3051189 25.899843,20.3838688 26.0816028,20.4775173 L26.3898503,20.6392739 L27.054177,20.306183 C27.2858941,20.492416 27.4984787,20.7041894 27.686616,20.9372466 L27.3549841,21.6023641 L27.5144225,21.9099144 C27.6090226,22.0929548 27.6887418,22.2845086 27.7493284,22.479255 L27.8534948,22.8123459 L28.1840638,22.9230214 L28.5603384,23.0485956 C28.5805339,23.2082238 28.5890373,23.3518892 28.5869115,23.4881053 Z M24.5042256,21.641739 C23.4827569,21.641739 22.6515514,22.4739341 22.6515514,23.4966188 C22.6515514,24.5193035 23.4827569,25.3514985 24.5042256,25.3514985 C25.5256942,25.3514985 26.3568997,24.5193035 26.3568997,23.4966188 C26.3568997,22.4739341 25.5256942,21.641739 24.5042256,21.641739 Z M25.2727186,24.2660267 C25.0675746,24.471415 24.7944034,24.5852831 24.5042256,24.5852831 C24.2140477,24.5852831 23.9408766,24.4724792 23.7357325,24.2660267 C23.5305884,24.0606384 23.4168557,23.7871421 23.4168557,23.4966188 C23.4168557,23.2060954 23.5295255,22.9325991 23.7357325,22.7272108 C23.9408766,22.5218225 24.2140477,22.4079544 24.5042256,22.4079544 C24.7944034,22.4079544 25.0675746,22.5207584 25.2727186,22.7272108 C25.4778627,22.9336633 25.5915954,23.2060954 25.5915954,23.4966188 C25.5915954,23.7871421 25.4778627,24.0606384 25.2727186,24.2660267 Z" id="path-1"></path>
        <path d="M11.4223142,11.6430365 C11.3019033,11.1365297 11.2383531,10.6068493 11.2383531,10.0639269 C11.2383531,9.78253425 11.2550768,9.50776256 11.2885243,9.23630137 C9.59608187,9.00125571 8.29497491,7.56449772 8.29497491,5.82648402 C8.29497491,3.92625571 9.85362746,2.38356164 11.7735128,2.38356164 C13.0478618,2.38356164 14.1616628,3.06221461 14.7670622,4.07191781 C15.4661145,3.67796804 16.242096,3.40319635 17.064904,3.27077626 C16.1083061,1.33413242 14.0981126,0 11.7735128,0 C8.52241777,0 5.88675639,2.6086758 5.88675639,5.82648402 C5.88675639,8.92842466 8.33511189,11.4642694 11.4223142,11.6430365 Z M23.3363064,17.0590183 C21.7843434,16.3108447 20.038385,15.890411 18.1954288,15.890411 C11.6932388,15.890411 6.42191606,21.1077626 6.42191606,27.543379 C6.42191606,28.2021689 6.96042048,28.7351598 7.62602532,28.7351598 C8.29163017,28.7351598 8.83013459,28.2021689 8.83013459,27.543379 C8.83013459,22.4253425 13.0244485,18.2739726 18.1954288,18.2739726 C18.8409652,18.2739726 19.4731226,18.3401826 20.0818667,18.4626712 C21.0183961,17.7575342 22.1288524,17.2642694 23.3363064,17.0590183 Z M24.0821852,10.0639269 C24.0821852,6.84611872 21.4465239,4.23744292 18.1954288,4.23744292 C14.9443338,4.23744292 12.3086725,6.84611872 12.3086725,10.0639269 C12.3086725,13.2817352 14.9443338,15.890411 18.1954288,15.890411 C21.4465239,15.890411 24.0821852,13.2817352 24.0821852,10.0639269 Z M18.1954288,13.5068493 C16.2755435,13.5068493 14.716891,11.9641553 14.716891,10.0639269 C14.716891,8.16369863 16.2755435,6.62100457 18.1954288,6.62100457 C20.1153142,6.62100457 21.6739667,8.16369863 21.6739667,10.0639269 C21.6739667,11.9641553 20.1153142,13.5068493 18.1954288,13.5068493 Z M12.5327706,14.0663242 C12.0176794,13.3545662 11.6363781,12.5368721 11.425659,11.6562785 C5.08401688,11.8416667 0,16.9861872 0,23.3059361 C0,23.964726 0.53850442,24.4977169 1.20410926,24.4977169 C1.8697141,24.4977169 2.40821852,23.964726 2.40821852,23.3059361 C2.40821852,18.1878995 6.60253245,14.0365297 11.7735128,14.0365297 C12.0310584,14.0365297 12.2819145,14.0464612 12.5327706,14.0663242 Z" id="path-2"></path>
    </defs>
    <g id="icon" stroke="none" stroke-width="1" fill="none" fill-rule="evenodd">
        <g id="用户权限-用户管理-">
            <circle id="Oval-Copy" fill="#49A7FF" cx="30" cy="30" r="30"></circle>
            <g id="Group-25" transform="translate(15.000000, 16.000000)" fill-rule="nonzero">
                <g id="Shape">
                    <use fill="#FFFFFF" fill-rule="evenodd" xlink:href="#path-1"></use>
                    <path stroke="#FFFFFF" stroke-width="0.2" d="M29.3818352,22.7101274 C29.4294743,22.9964213 29.4512283,23.2544151 29.4479641,23.4944904 C29.4479641,23.7385477 29.4260288,23.9951213 29.3808354,24.2784546 L29.3404443,24.5338597 L29.2734062,24.6130704 L28.557758,24.8095488 C28.4881466,25.0262544 28.4010683,25.2366938 28.2979491,25.3482713 L28.6657204,26.0836253 L28.6575773,26.186589 L28.5062541,26.3978364 C28.3381294,26.6292831 28.1732933,26.8255089 28.0003807,26.9986211 C27.8297501,27.1727191 27.633213,27.3391971 27.3996858,27.5077544 L27.19029,27.6588691 L27.0869546,27.6671754 L26.4422458,27.2988963 C26.2379118,27.401732 26.0281038,27.4885959 25.8799527,27.494359 L25.6205996,28.275473 L25.5413509,28.3427284 L25.2863225,28.3831559 C25.0019974,28.4284433 24.745745,28.4503804 24.5020997,28.4503804 C24.2583131,28.4503804 24.0020262,28.4284174 23.7190129,28.3831675 L23.4639114,28.3427284 L23.3846627,28.275473 L23.1898619,27.5581297 C22.97838,27.49076 22.7682802,27.4033418 22.6517762,27.2978761 L21.9183596,27.6660852 L21.8149724,27.6578049 L21.6049463,27.5062316 C21.3696537,27.333623 21.1735118,27.1674798 21.0053354,26.9980168 C20.8239754,26.8153471 20.6580669,26.6184311 20.4989013,26.3966247 L20.3479663,26.1880439 L20.3394902,26.0847931 L20.7056467,25.4418319 C20.6029209,25.2415488 20.5156016,25.0302529 20.5088526,24.876989 L19.7297303,24.6162629 L19.6626922,24.5370522 L19.622322,24.2817782 C19.577083,23.9981587 19.5551724,23.7416072 19.5551724,23.4966188 C19.5551724,23.2528444 19.577056,22.9963414 19.6223011,22.7105263 L19.6626922,22.4551211 L19.7299636,22.3758327 L20.4454236,22.1814205 C20.5147092,21.9668128 20.6015684,21.7565164 20.7041244,21.643902 L20.3363532,20.9085481 L20.3444962,20.8055844 L20.4957663,20.5944103 C20.8052656,20.1675295 21.1781539,19.7947439 21.6045137,19.4854832 L21.8139094,19.3343685 L21.9174001,19.3261402 L22.5604914,19.6956074 C22.7574446,19.5953795 22.968411,19.5082625 23.1242467,19.4999427 L23.3835998,18.7188287 L23.4628485,18.6515734 L23.7179173,18.6111394 C24.0106852,18.5646302 24.2603844,18.5428571 24.5020997,18.5428571 C24.7483958,18.5428571 24.9966922,18.564292 25.2849094,18.6100265 L25.537885,18.6494015 L25.6173721,18.7165839 L25.8126482,19.4309912 C26.0279356,19.5006619 26.2380216,19.5878012 26.3503492,19.6910787 L27.0848288,19.3228696 L27.1881642,19.3311759 L27.397854,19.4825037 C27.8208921,19.7901401 28.1941598,20.1633054 28.5077052,20.5916826 L28.6586403,20.8023918 L28.6667833,20.9053555 L28.2985527,21.5503415 C28.4012785,21.7506246 28.4885979,21.9619205 28.4953468,22.1151844 L29.2744691,22.3759104 L29.3415072,22.4551211 L29.3818352,22.7101274 Z M28.4684846,23.123363 L28.1523156,23.0178479 L27.758053,22.8421931 L27.6538426,22.5089611 C27.5958015,22.3223969 27.5188234,22.1362318 27.4256433,21.9559388 L27.2654916,21.5577425 L27.5682218,20.9505898 C27.408156,20.7585827 27.2304933,20.581519 27.038278,20.4222747 L26.3433835,20.7278224 L26.0358014,20.5664118 C25.8578772,20.4747395 25.6728781,20.3984114 25.4864943,20.3399685 L25.0885964,20.1729514 L24.8729291,19.5280972 C24.7423419,19.5146884 24.6202824,19.5080083 24.5031626,19.5080083 C24.3895202,19.5080083 24.2683943,19.5146985 24.1334263,19.5282814 L24.0282852,19.8440801 L23.8528041,20.2387838 L23.5201454,20.343063 C23.3290734,20.4030379 23.144341,20.4795161 22.9713029,20.5702629 L22.5706481,20.7340163 L21.9631513,20.4299063 C21.772756,20.5880354 21.5969705,20.7640411 21.4390402,20.9546747 L21.5867423,21.2513213 L21.740998,21.6540652 L21.5796766,21.9622128 C21.4871471,22.1412467 21.4109821,22.3262904 21.3536146,22.511931 L21.18657,22.911474 L20.5416401,23.1263824 C20.5281736,23.258239 20.5215396,23.3797954 20.5215396,23.497683 C20.5215396,23.6218244 20.5280706,23.7455299 20.5416427,23.8724144 L21.2526633,24.1493654 L21.3558886,24.4849836 C21.4109432,24.6666758 21.4868485,24.8503104 21.5815596,25.031622 L21.7440225,25.4312383 L21.4409177,26.0391422 C21.5218361,26.1386445 21.6034761,26.2294515 21.6891433,26.3152207 C21.7731823,26.3993598 21.8638579,26.4810321 21.964901,26.563606 L22.261459,26.4155962 L22.6658805,26.2599635 L22.9769436,26.422083 C23.1459903,26.5118669 23.3282895,26.5870512 23.5196592,26.6457666 L23.920018,26.8133295 L24.0293786,27.1460563 L24.1345402,27.4619165 C24.2660645,27.4753598 24.3881839,27.4820367 24.5052885,27.4820367 C24.6280865,27.4820367 24.7504575,27.4756228 24.8759097,27.4622987 L24.9810767,27.1464239 L25.1545841,26.7523254 L25.4869453,26.6481401 C25.6780489,26.5874997 25.8638206,26.5106539 26.0385649,26.4195968 L26.4378603,26.2581858 L27.0450047,26.5626057 C27.1454701,26.4811503 27.2357261,26.3997886 27.3182449,26.3162849 L27.3203708,26.3141565 C27.4051988,26.2292275 27.4875169,26.1375282 27.570785,26.0352174 L27.2644491,25.3366928 L27.4281593,25.026976 C27.5199569,24.853489 27.5950064,24.6710829 27.6516214,24.4835204 L27.8181955,24.0829948 L28.1513442,23.9700382 L28.466808,23.8647584 C28.4802765,23.7328896 28.4869115,23.6113232 28.4869115,23.4934262 L28.4869115,23.4881053 L28.4869236,23.4865448 C28.4887059,23.3723455 28.4827087,23.2530219 28.4684846,23.123363 Z M24.5042256,21.541739 C25.5809494,21.541739 26.4568997,22.4187322 26.4568997,23.4966188 C26.4568997,24.5745053 25.5809494,25.4514985 24.5042256,25.4514985 C23.4275018,25.4514985 22.5515514,24.5745053 22.5515514,23.4966188 C22.5515514,22.4187322 23.4275018,21.541739 24.5042256,21.541739 Z M25.2019659,24.1953581 C25.3886447,24.0084572 25.4915954,23.7602707 25.4915954,23.4966188 C25.4915954,23.2333294 25.3888965,22.9860027 25.2017835,22.7976964 C25.0158632,22.6105903 24.7684161,22.5079544 24.5042256,22.5079544 C24.2409689,22.5079544 23.9931411,22.6110013 23.8063024,22.798062 C23.6193959,22.9842264 23.5168557,23.232032 23.5168557,23.4966188 C23.5168557,23.7602707 23.6198065,24.0084572 23.8066676,24.1955412 C23.9925879,24.3826473 24.240035,24.4852831 24.5042256,24.4852831 C24.7674823,24.4852831 25.01531,24.3822362 25.2019659,24.1953581 Z"></path>
                </g>
                <g id="Shape">
                    <use fill="#FFFFFF" fill-rule="evenodd" xlink:href="#path-2"></use>
                    <path stroke="#49A7FF" stroke-width="0.3" d="M11.2321109,11.4783692 C11.136857,11.0171437 11.0883531,10.5433059 11.0883531,10.0639269 C11.0883531,9.82630255 11.1000322,9.59290353 11.1234806,9.36189189 C9.41393926,9.05486379 8.14497491,7.57525589 8.14497491,5.82648402 C8.14497491,3.84306547 9.77112834,2.23356164 11.7735128,2.23356164 C13.0194847,2.23356164 14.1562451,2.8611726 14.818858,3.87223508 C15.4472642,3.53489206 16.1275176,3.29374169 16.838095,3.15834379 C15.8510151,1.32628865 13.9190005,0.15 11.7735128,0.15 C8.6049169,0.15 6.03675639,2.69186604 6.03675639,5.82648402 C6.03675639,8.76942244 8.30631164,11.2086128 11.2321109,11.4783692 Z M22.8542989,17.0032302 C21.4003882,16.371872 19.8209383,16.040411 18.1954288,16.040411 C11.775738,16.040411 6.57191606,21.1909528 6.57191606,27.543379 C6.57191606,28.1189787 7.0429196,28.5851598 7.62602532,28.5851598 C8.20913105,28.5851598 8.68013459,28.1189787 8.68013459,27.543379 C8.68013459,22.3421522 12.9419494,18.1239726 18.1954288,18.1239726 C18.8175046,18.1239726 19.4371494,18.1844927 20.04558,18.3025974 C20.8818278,17.6843579 21.8365778,17.2409188 22.8542989,17.0032302 Z M23.9321852,10.0639269 C23.9321852,6.92930896 21.3640247,4.38744292 18.1954288,4.38744292 C15.026833,4.38744292 12.4586725,6.92930896 12.4586725,10.0639269 C12.4586725,13.1985449 15.026833,15.740411 18.1954288,15.740411 C21.3640247,15.740411 23.9321852,13.1985449 23.9321852,10.0639269 Z M18.1954288,13.6568493 C16.1930444,13.6568493 14.566891,12.0473455 14.566891,10.0639269 C14.566891,8.08050839 16.1930444,6.47100457 18.1954288,6.47100457 C20.1978133,6.47100457 21.8239667,8.08050839 21.8239667,10.0639269 C21.8239667,12.0473455 20.1978133,13.6568493 18.1954288,13.6568493 Z M12.2338872,13.8972107 C11.8148773,13.2597853 11.5014361,12.5545708 11.3094065,11.810351 C5.09135001,12.0550372 0.15,17.1212261 0.15,23.3059361 C0.15,23.8815358 0.62100354,24.3477169 1.20410926,24.3477169 C1.78721498,24.3477169 2.25821852,23.8815358 2.25821852,23.3059361 C2.25821852,18.1047093 6.52003333,13.8865297 11.7735128,13.8865297 C11.928569,13.8865297 12.0815606,13.8900761 12.2338872,13.8972107 Z"></path>
                </g>
            </g>
        </g>
    </g>
</svg>

<svg width="60" height="60" xmlns="http://www.w3.org/2000/svg" xmlns:xlink="http://www.w3.org/1999/xlink"><defs><path d="M29.283 22.726l-.04-.255-.78-.261a4.126 4.126 0 0 0-.253-.614l.367-.735-.15-.211a4.97 4.97 0 0 0-1.088-1.087l-.21-.15-.734.367a4.162 4.162 0 0 0-.613-.254l-.26-.778-.252-.04a4.804 4.804 0 0 0-.768-.065c-.236 0-.48.021-.768.067l-.255.04-.26.781a4.31 4.31 0 0 0-.613.254l-.734-.37-.209.152a4.874 4.874 0 0 0-1.086 1.086l-.151.21.368.736c-.1.197-.185.402-.253.613l-.78.259-.04.255a4.898 4.898 0 0 0-.066.77c0 .239.021.49.066.77l.04.255.78.261c.068.21.153.417.254.614l-.366.733.15.209c.158.22.32.412.497.59.165.166.357.328.588.498l.21.15.733-.367c.198.1.403.187.613.254l.26.781.255.04c.28.045.53.066.767.066s.488-.02.769-.066l.255-.04.259-.781a4.42 4.42 0 0 0 .612-.253l.735.368.21-.151a4.506 4.506 0 0 0 1.083-1.088l.151-.21-.367-.736a4.08 4.08 0 0 0 .254-.614l.779-.26.04-.256c.045-.28.066-.531.066-.769a4.313 4.313 0 0 0-.065-.768zm-.696.762v.005c0 .144-.01.29-.028.446l-.376.126-.333.113-.103.335a3.143 3.143 0 0 1-.23.56l-.164.31.334.668a3.859 3.859 0 0 1-.296.334l-.002.002c-.099.1-.208.197-.332.294l-.664-.333-.308.16a3.565 3.565 0 0 1-.568.235l-.333.105-.108.33-.125.376a3.61 3.61 0 0 1-.891 0l-.126-.376-.109-.333-.335-.104a3.191 3.191 0 0 1-.56-.23l-.31-.162-.314.156-.354.177a3.78 3.78 0 0 1-.63-.63l.333-.665-.162-.309a3.274 3.274 0 0 1-.233-.564l-.103-.335-.708-.235a3.623 3.623 0 0 1 0-.892l.706-.235.103-.335c.06-.192.138-.383.233-.566l.161-.308-.155-.312-.176-.354c.186-.232.397-.444.629-.63l.665.333.31-.163c.178-.094.369-.173.565-.234l.333-.105.11-.33.126-.377a3.96 3.96 0 0 1 .444-.028c.143 0 .29.01.444.028l.236.705.333.103c.194.061.384.14.566.234l.308.161.664-.333c.232.186.444.398.633.631l-.332.665.16.308c.094.183.174.375.234.57l.104.332.331.111.376.126c.02.16.029.303.027.44zm-4.083-1.846a1.856 1.856 0 0 0 0 3.71 1.856 1.856 0 0 0 0-3.71zm.769 2.624a1.08 1.08 0 0 1-.769.32c-.29 0-.563-.114-.768-.32a1.083 1.083 0 0 1-.32-.77c0-.29.114-.563.32-.769a1.08 1.08 0 0 1 .768-.319c.29 0 .564.113.769.32a1.085 1.085 0 0 1 0 1.538z" id="a"/><path d="M11.422 11.643a6.827 6.827 0 0 1-.133-2.407c-1.693-.235-2.994-1.672-2.994-3.41 0-1.9 1.559-3.442 3.479-3.442 1.274 0 2.388.678 2.993 1.688a6.915 6.915 0 0 1 2.298-.801A5.893 5.893 0 0 0 11.774 0C8.522 0 5.887 2.609 5.887 5.826c0 3.102 2.448 5.638 5.535 5.817zm11.914 5.416a11.813 11.813 0 0 0-5.14-1.169c-6.503 0-11.774 5.218-11.774 11.653 0 .66.538 1.192 1.204 1.192.666 0 1.204-.533 1.204-1.192 0-5.118 4.194-9.269 9.365-9.269.646 0 1.278.066 1.887.189a7.5 7.5 0 0 1 3.254-1.404zm.746-6.995c0-3.218-2.635-5.827-5.887-5.827-3.25 0-5.886 2.61-5.886 5.827 0 3.218 2.635 5.826 5.886 5.826 3.252 0 5.887-2.608 5.887-5.826zm-5.887 3.443c-1.92 0-3.478-1.543-3.478-3.443 0-1.9 1.559-3.443 3.478-3.443 1.92 0 3.479 1.543 3.479 3.443 0 1.9-1.559 3.443-3.479 3.443zm-5.662.56a6.82 6.82 0 0 1-1.107-2.41C5.084 11.841 0 16.986 0 23.305c0 .659.539 1.192 1.204 1.192.666 0 1.204-.533 1.204-1.192 0-5.118 4.195-9.27 9.366-9.27.257 0 .508.01.759.03z" id="b"/></defs><g fill="none" fill-rule="evenodd"><circle fill="#49A7FF" cx="30" cy="30" r="30"/><g fill-rule="nonzero"><g transform="translate(15 16)"><use fill="#FFF" fill-rule="evenodd" xlink:href="#a"/><path stroke="#FFF" stroke-width=".2" d="M29.382 22.71c.047.286.07.544.066.784 0 .245-.022.501-.067.784l-.04.256-.068.08-.715.196c-.07.216-.157.427-.26.538l.368.736-.008.103-.152.21a4.604 4.604 0 0 1-1.107 1.11l-.209.152-.103.008-.645-.368c-.204.103-.414.19-.562.195l-.26.781-.079.068-.255.04c-.284.045-.54.067-.784.067s-.5-.022-.783-.067l-.255-.04-.08-.068-.194-.717c-.212-.067-.422-.155-.538-.26l-.734.368-.103-.008-.21-.152a5.018 5.018 0 0 1-.6-.508 4.891 4.891 0 0 1-.506-.601l-.151-.209-.009-.103.367-.643c-.103-.2-.19-.412-.197-.565l-.78-.26-.066-.08-.04-.255a4.954 4.954 0 0 1-.068-.785c0-.244.022-.5.067-.786l.04-.256.068-.08.715-.194c.07-.214.157-.424.26-.537l-.369-.735.008-.103.152-.212c.31-.426.682-.8 1.109-1.109l.209-.15.103-.009.643.37c.197-.1.408-.188.564-.196l.26-.781.079-.067.255-.04c.293-.047.542-.07.784-.07a4.9 4.9 0 0 1 .783.068l.253.04.08.067.195.714c.215.07.425.157.537.26l.735-.368.103.008.21.152c.423.307.796.68 1.11 1.109l.15.21.009.103-.368.645c.102.2.19.412.196.565l.78.26.067.08.04.255zm-.914.413l-.316-.105-.394-.176-.104-.333a3.427 3.427 0 0 0-.228-.553l-.16-.398.302-.607a4.075 4.075 0 0 0-.53-.529l-.695.306-.307-.162a3.473 3.473 0 0 0-.55-.226l-.397-.167-.216-.645a3.61 3.61 0 0 0-.74 0l-.105.316-.175.395-.333.104c-.19.06-.376.137-.549.227l-.4.164-.608-.304a4 4 0 0 0-.524.525l.148.296.154.403-.161.308a3.368 3.368 0 0 0-.226.55l-.167.4-.645.214a3.63 3.63 0 0 0 0 .746l.71.277.104.336c.055.182.13.365.226.547l.162.4-.303.607a3.616 3.616 0 0 0 .524.525l.296-.148.405-.156.31.162c.17.09.352.165.544.224l.4.167.11.333.105.316a3.634 3.634 0 0 0 .74 0l.106-.316.174-.394.332-.104c.191-.06.377-.137.552-.228l.399-.162.607.305c.1-.082.19-.163.273-.247l.002-.002c.085-.085.168-.176.25-.279l-.306-.698.164-.31c.092-.174.167-.356.224-.543l.166-.401.333-.113.316-.105a3.63 3.63 0 0 0 .02-.372v-.006a2.9 2.9 0 0 0-.019-.364zm-3.964-1.581a1.956 1.956 0 0 1 0 3.91 1.956 1.956 0 0 1 0-3.91zm.698 2.653a.985.985 0 0 0 0-1.398.976.976 0 0 0-.698-.289.98.98 0 0 0-.698.29.978.978 0 0 0-.29.699c0 .263.104.511.29.699.187.187.434.29.698.29a.98.98 0 0 0 .698-.29z"/></g><g transform="translate(15 16)"><use fill="#FFF" fill-rule="evenodd" xlink:href="#b"/><path stroke="#49A7FF" stroke-width=".3" d="M11.232 11.478a6.993 6.993 0 0 1-.109-2.116c-1.71-.307-2.978-1.787-2.978-3.536 0-1.983 1.626-3.592 3.629-3.592 1.245 0 2.382.627 3.045 1.638a7.061 7.061 0 0 1 2.02-.714A5.744 5.744 0 0 0 11.773.15c-3.17 0-5.737 2.542-5.737 5.676 0 2.943 2.27 5.383 5.195 5.652zm11.622 5.525a11.674 11.674 0 0 0-4.659-.963c-6.42 0-11.623 5.151-11.623 11.503 0 .576.47 1.042 1.054 1.042.583 0 1.054-.466 1.054-1.042 0-5.2 4.262-9.419 9.515-9.419.623 0 1.242.06 1.85.179a7.652 7.652 0 0 1 2.81-1.3zm1.078-6.94c0-3.134-2.568-5.676-5.737-5.676-3.168 0-5.736 2.542-5.736 5.677s2.568 5.676 5.736 5.676c3.169 0 5.737-2.541 5.737-5.676zm-5.737 3.594c-2.002 0-3.628-1.61-3.628-3.593 0-1.983 1.626-3.593 3.628-3.593 2.003 0 3.629 1.61 3.629 3.593 0 1.983-1.626 3.593-3.629 3.593zm-5.961.24a6.971 6.971 0 0 1-.925-2.087C5.091 12.055.15 17.121.15 23.306c0 .576.471 1.042 1.054 1.042.583 0 1.054-.466 1.054-1.042 0-5.201 4.262-9.42 9.516-9.42.155 0 .308.004.46.011z"/></g></g></g></svg>
